src/status/16/kazam-paused.svg

<svg viewBox="0 0 16 16" xmlns="http://www.w3.org/2000/svg">
 <path style="fill:#2e3440;opacity:1;fill-opacity:1;stroke:none;fill-rule:nonzero" d="M 0.5,2 C 0.223,2 0,2.223 0,2.5 v 11 C 0,13.777 0.223,14 0.5,14 h 10 C 10.777,14 11,13.777 11,13.5 V 11 l 4.390625,1.955078 C 15.670819,13.092583 15.998842,12.893369 16,12.583984 V 3.4160156 C 16,3.1066307 15.670819,2.9074175 15.390625,3.0449219 L 11,5 V 2.5 C 11,2.223 10.777,2 10.5,2 Z m 2,2 h 1 C 3.777,4 4,4.223 4,4.5 v 7 C 4,11.777 3.777,12 3.5,12 h -1 C 2.223,12 2,11.777 2,11.5 v -7 C 2,4.223 2.223,4 2.5,4 Z m 4,0 h 1 C 7.777,4 8,4.223 8,4.5 v 7 C 8,11.777 7.777,12 7.5,12 h -1 C 6.223,12 6,11.777 6,11.5 v -7 C 6,4.223 6.223,4 6.5,4 Z"/>
</svg>

<svg viewBox="0 0 16 16" xmlns="http://www.w3.org/2000/svg">
 <path d="m0.5 2c-0.277 0-0.5 0.223-0.5 0.5v11c0 0.277 0.223 0.5 0.5 0.5h10c0.277 0 0.5-0.223 0.5-0.5v-2.5l4.3906 1.9551c0.28019 0.1375 0.60822-0.061709 0.60938-0.37109v-9.168c0-0.30938-0.32918-0.5086-0.60938-0.37109l-4.3906 1.9551v-2.5c0-0.277-0.223-0.5-0.5-0.5zm2 2h1c0.277 0 0.5 0.223 0.5 0.5v7c0 0.277-0.223 0.5-0.5 0.5h-1c-0.277 0-0.5-0.223-0.5-0.5v-7c0-0.277 0.223-0.5 0.5-0.5zm4 0h1c0.277 0 0.5 0.223 0.5 0.5v7c0 0.277-0.223 0.5-0.5 0.5h-1c-0.277 0-0.5-0.223-0.5-0.5v-7c0-0.277 0.223-0.5 0.5-0.5z" fill="#2e3440"/>
</svg>
